packages/symbols/svgs/duotone/facebook-duotone.svg

<svg width="24" height="24" viewBox="0 0 24 24" fill="none" xmlns="http://www.w3.org/2000/svg">
<g clip-path="url(#clip0_1068_7754)">
<path d="M24 12.072C23.9997 9.77881 23.3424 7.5337 22.1058 5.60248C20.8692 3.67126 19.1051 2.13481 17.0225 1.17501C14.9398 0.21522 12.6257 -0.127716 10.3542 0.186804C8.08263 0.501325 5.94878 1.46013 4.20524 2.94971C2.4617 4.43929 1.18149 6.39726 0.516158 8.59182C-0.149172 10.7864 -0.171753 13.1256 0.451088 15.3326C1.07393 17.5396 2.31611 19.522 4.03057 21.0449C5.74503 22.5679 7.85996 23.5677 10.125 23.926V15.541H7.078V12.072H10.125V9.42801C10.125 6.42101 11.917 4.75901 14.657 4.75901C15.5571 4.77192 16.4552 4.85013 17.344 4.99301V7.94701H15.83C15.3742 7.88651 14.9131 8.00949 14.548 8.2889C14.1829 8.56831 13.9437 8.98128 13.883 9.43701C13.8658 9.56464 13.8632 9.69379 13.875 9.82201V12.072H17.2L16.668 15.541H13.868V23.926C16.692 23.481 19.2644 22.0423 21.1219 19.8691C22.9795 17.6959 24.0001 14.9309 24 12.072Z" fill="black"/>
</g>
<defs>
<clipPath id="clip0_1068_7754">
<rect width="24" height="24" fill="white"/>
</clipPath>
</defs>
</svg>

<svg width="24" height="24" viewBox="0 0 24 24" xmlns="http://www.w3.org/2000/svg"><g clip-path="url(#a)"><path d="M24 12.072a12 12 0 1 0-13.875 11.854v-8.385H7.078v-3.469h3.047V9.428c0-3.007 1.792-4.669 4.532-4.669.9.013 1.798.091 2.687.234v2.954H15.83a1.734 1.734 0 0 0-1.955 1.875v2.25H17.2l-.532 3.469h-2.8v8.385A12 12 0 0 0 24 12.072Z"/></g><defs><clipPath id="a"><path fill="#fff" d="M0 0h24v24H0z"/></clipPath></defs></svg>
